icons/manual-gearbox.svg

<svg width="24" height="24" viewBox="0 0 24 24" fill="none" xmlns="http://www.w3.org/2000/svg">
<path d="M5 8C6.10457 8 7 7.10457 7 6C7 4.89543 6.10457 4 5 4C3.89543 4 3 4.89543 3 6C3 7.10457 3.89543 8 5 8Z" stroke="white" stroke-width="2" stroke-linecap="round" stroke-linejoin="round"/>
<path d="M12 8C13.1046 8 14 7.10457 14 6C14 4.89543 13.1046 4 12 4C10.8954 4 10 4.89543 10 6C10 7.10457 10.8954 8 12 8Z" stroke="white" stroke-width="2" stroke-linecap="round" stroke-linejoin="round"/>
<path d="M12 20C13.1046 20 14 19.1046 14 18C14 16.8954 13.1046 16 12 16C10.8954 16 10 16.8954 10 18C10 19.1046 10.8954 20 12 20Z" stroke="white" stroke-width="2" stroke-linecap="round" stroke-linejoin="round"/>
<path d="M5 20C6.10457 20 7 19.1046 7 18C7 16.8954 6.10457 16 5 16C3.89543 16 3 16.8954 3 18C3 19.1046 3.89543 20 5 20Z" stroke="white" stroke-width="2" stroke-linecap="round" stroke-linejoin="round"/>
<path d="M5 12H19V8M5 8V12V8ZM5 16V12V16ZM12 8V16V8Z" stroke="white" stroke-width="2" stroke-linecap="round" stroke-linejoin="round"/>
<path d="M19 8C20.1046 8 21 7.10457 21 6C21 4.89543 20.1046 4 19 4C17.8954 4 17 4.89543 17 6C17 7.10457 17.8954 8 19 8Z" stroke="white" stroke-width="2" stroke-linecap="round" stroke-linejoin="round"/>
</svg>

<svg
  width="24"
  height="24"
  viewBox="0 0 24 24"
  xmlns="http://www.w3.org/2000/svg"
  fill="none"
  stroke="currentColor"
  stroke-width="2"
  stroke-linecap="round"
  stroke-linejoin="round"
>
  <path d="M5 8a2 2 0 1 0 0-4 2 2 0 0 0 0 4z" />
  <path d="M12 8a2 2 0 1 0 0-4 2 2 0 0 0 0 4z" />
  <path d="M12 20a2 2 0 1 0 0-4 2 2 0 0 0 0 4z" />
  <path d="M5 20a2 2 0 1 0 0-4 2 2 0 0 0 0 4z" />
  <path d="M5 12h14V8M5 8v4-4zm0 8v-4 4zm7-8v8-8z" />
  <path d="M19 8a2 2 0 1 0 0-4 2 2 0 0 0 0 4z" />
</svg>
